X:1
T:Title
%%score { 1 | 2 }
L:1/8
Q:1/4=78
M:6/8
K:F
V:1 treble nm="Grand Piano"
V:2 bass 
V:1
 AAA AFF | [DG]FE F3 | DDD CFF | [=B,DF][B,FG][B,FA] [CEG]3 | AAA AFF | F[EG][_EA] [DB]3 | %6
w: Haldor~Lillenas * * * * *||||||
 [Fd][Fd][Fd] [Fc]2 [CFA] | [B,EG]3 .[A,F]3 | [CEG][CEG][CFA] .[CGB]3 | [CFA][CFA][CGB] [CAc]2 A, | %10
w: ||||
 ddd c2 A | [FA]3 .[EG]3 | AAA AFF | F[EG][_EA] [DB]3 | [Fd][Fd][Fd] [Fc]2 [FA] | [EG]3 .F3 |] %16
w: ||||||
V:2
 [F,CF][F,CF][F,CF] [F,CF][F,A,C][F,A,C] | [B,,B,][C,A,C][C,G,C] [F,A,C]3 | %2
 [B,,F,B,][B,,F,B,][D,F,B,] [F,A,][F,A,C][D,A,D] | G,,G,,G,, C,3 | %4
 [F,CF][F,CF][F,CF] [F,CF][F,A,C][F,A,C] | [F,A,][C,B,][F,C] [B,,B,]3 | %6
 [=B,,_A,][B,,A,][B,,A,] [C,=A,]2 C, | C,3 .F,3 | C,C,C, C,D,E, | F,F,F, F, .G,2 | %10
 [B,F][B,F][B,F] [A,CF]2 [F,CF] | [C,C]3 .[C,C]3 | [F,CF][F,CF][F,CF] [F,CF][F,A,C][F,A,C] | %13
 [F,A,][C,B,][F,C] [B,,B,]3 | [=B,,_A,][B,,A,][B,,A,] [C,=A,]2 [C,C] | [C,B,]3 .[F,A,]3 |] %16

